icons/Document/file-shred-line.svg

<svg xmlns="http://www.w3.org/2000/svg" viewBox="0 0 24 24">
    <g>
        <path fill="none" d="M0 0h24v24H0z"/>
        <path d="M6 12h12V8h-4V4H6v8zm-2 0V2.995c0-.55.445-.995.996-.995H15l5 5v5h2v2H2v-2h2zm-1 4h2v6H3v-6zm16 0h2v6h-2v-6zm-4 0h2v6h-2v-6zm-4 0h2v6h-2v-6zm-4 0h2v6H7v-6z"/>
    </g>
</svg>

<svg viewBox="0 0 24 24" xmlns="http://www.w3.org/2000/svg"><path d="M6 12H18V8H14V4H6V12ZM4 12V2.9954C4 2.44565 4.44484 2 4.99558 2H15L19.9997 7L20 12H22V14H2V12H4ZM3 16H5V22H3V16ZM19 16H21V22H19V16ZM15 16H17V22H15V16ZM11 16H13V22H11V16ZM7 16H9V22H7V16Z"/></svg>
